!!!COM: Vivaldi, Antonio Lucio
!!!CDT: 1678/03/04-1741/08/28
!!!OPR: 12 Sonatas for Violin and Bassoc continuo
!!!OTL: Sonata in G minor, op. @{OPS}, no. @{ONM} (@{SCT})
!!!OPS: 2
!!!ONM: 1
!!!OMV: 3. Sarabanda
!!!SCT: RV 27
!!!SCA: Antonio Vivaldi: Thematisch-systematisches Verzeichnis seiner Werke (Ryom-Verzeichnis)
!!!OMD: Largo
!!!key: g
**kern	**fb	**kern
*part2	*	*part1
*staff2	*	*staff1
*ICklav	*	*ICstr
*Icemba	*	*Ivioln
*I"Basso continuo	*	*I"Violino
*I'bc	*	*I'v
*>[A,A,B,B]	*>[A,A,B,B]	*>[A,A,B,B]
*>norep[A,B]	*>norep[A,B]	*>norep[A,B]
*>A	*>A	*>A
*clefF4	*	*clefG2
*k[b-]	*	*k[b-]
*g:	*	*g:
*M3/4	*	*M3/4
*MM60	*	*MM60
8r	.	8dd\
=1	=1	=1
8G\L	.	4g/
8A\	.	.
8B-y\	.	4.gg\
8G\	.	.
8B-y\	.	.
8c\J	.	8aa\
=2	=2	=2
8d\L	#	4ff#X\
8e-X\	.	.
8d\	6 4	4.gg\
8c\	.	.
8B-y\	.	.
8A\J	6#/	8aa\
=3	=3	=3
8B-y\L	6	4dd\
8G\	.	.
8F#X\	6	4.ddd\
8E\	.	.
8F#X\	.	.
8D\J	7 #	8ccc\
=4	=4	=4
8G\L	.	(8bb-y\L
8A\	.	8aa\J)
8B-y\	.	4gg\
8A\	.	.
8B-y\	.	8r
8G\J	.	8gg\
=5	=5	=5
8Fn\L	6	4aa\
8E\	.	.
8F\	.	4.dd\
8D\	.	.
8F\	.	.
8G\J	6-r	8ee-X\
=6	=6	=6
8A\L	#	4.cc#X\
8B-y\	.	.
8A\	.	.
8G\	.	8cc#y\
8F\	6	[4dd\
8E\J	.	.
=7	=7	=7
8F\L	6	8dd\L]
8G\	.	8ee\J
8A\	6 4	4.ee\t
8G\	.	.
8A\	5 #	.
8AA\J	.	8dd\
!!LO:LB:g=original
=8	=8	=8
*>B	*>B	*>B
2D\	.	2dd\
8ryy	.	8ryy
=:|!|:	=:|!|:	=:|!|:
8F\L	.	8r
8E-X\J	.	8cc\
=9	=9	=9
8D/L	6nr	8bn\L
8C/	.	8aa-X\J
8BBn/	6	4.gg\
8AAn/	7	.
8BB/	.	.
8GG/J	7 n	8ff\
=10	=10	=10
8C\L	-	8ee-X\L
8D\	.	8dd\J
8E-X\	.	4cc\
8F\	.	.
8G\	.	8r
8F\J	.	8dd\
=11	=11	=11
8En/L	6#/	8cc#X\L
8D/	.	8bb-y\J
8C#X/	6	4.aa\
8BBn/	.	.
8C#X/	.	.
8AA/J	7 #	8gg\
=12	=12	=12
4D\	#	8ff#X\L
.	.	8ee\J
8d\L	.	4dd\
8e-X\	.	.
8d\	.	4r
8c\J	.	.
=13	=13	=13
8B-y\L	6	4dd\
8c\	.	.
8B-y\	.	4.dd\
8A\	.	.
8G\	.	.
8F\J	.	8dd\
=14	=14	=14
4E-X\	7	8gg\L
.	.	8ff#X\J
8c\L	-	4gg\
8d\	.	.
8c\	.	4r
8B-y\J	.	.
=15	=15	=15
8A\L	6#/	4cc\
8B-y\	.	.
8A\	.	4.cc\
8G\	.	.
8F#X\	.	.
8E\J	.	8cc\
=16	=16	=16
8D/L	#	4.ff#X\
8E-X/	.	.
8D/	.	.
8C/	.	8dd\
8BB-y/	6	[4gg\
8AA/J	.	.
!!LO:LB:g=original
=17	=17	=17
8BB-y/L	6	8gg\L]
8C/	.	8aa\J
8D/	5 4	4.ff#X\t
8C/	.	.
8D/	#	.
8DD/J	.	8gg\
=18	=18	=18
4GG/	.	2.gg\
8B-y\L	6	.
8c\	.	.
8d\	.	.
8B-y\J	.	.
=19	=19	=19
8G\L	6-r	4ee-X\
8GG\	.	.
8G\	.	4.ee-y\
8F#X\	.	.
8G\	.	.
8A\J	.	8ee-y\
=20	=20	=20
8F#X/L	6	4aa\
8FF#X/	.	.
8F#X/	.	4dd\
8G/	.	.
8A/	.	4r
8G/J	.	.
=21	=21	=21
8Fn/L	6	4dd\
8FFn/	.	.
8F/	.	4.dd\
8E/	.	.
8F/	.	.
8G/J	.	8dd\
=22	=22	=22
8E/L	6	4gg\
8EE/	.	.
8E/	.	4cc\
8F/	.	.
8G/	.	4r
8F/J	.	.
=23	=23	=23
8E-X/L	6	4cc\
8C/	.	.
8BB-y/	6	4.dd\
8AA/	.	.
8BB-y/	.	.
8GG/J	.	8ee-X\
=24	=24	=24
8D/L	#	4.f#X/
8E-X/	.	.
8D/	.	.
8C/	.	8d/
8BB-y/	6	[4g/
8AA/J	.	.
=25	=25	=25
8BB-y/L	6	8g/L]
8C/	.	8a/J
8D/	5 4	4.a/t
8C/	.	.
8D/	#	.
8DD/J	.	8g/
=26	=26	=26
2GG/;	.	2g/;
=:|!	=:|!	=:|!
*-	*-	*-
!!!SMS: RV 27 / Estienne Roger, Amsterdam [facs.]
!!!ENC: Fran Bennion; rev. E Correia (4/21)
!!!END: 2004/11/15
!!!ONB: Converted from MuseData with musedata2hum on Sat May 11 12:07:51 2024
!!!YEM: (C) 2004, 2004 Center for Computer Assisted Research in the Humanities.
!!!system-decoration: [(s1,s2)]
!!!URL-info: https://wiki.ccarh.org/wiki/MuseData:_Antonio_Vivaldi#Op._2:_Sonate_a_violino_e_basso_per_il_cembalo
!!!URL-pdf: https://pdf.musedata.org/vivaldi-op02-no01.pdf#page=3 MuseData edition
!!!URL-pdf: http://conquest.imslp.info/files/imglnks/usimg/b/b7/IMSLP99075-PMLP183164-Vivaldi_-_Sonatas_Op2.pdf#page=4 Estienne Roger Amsterdam: Estienne Roger, No.2, n.d.[1711].
!!!URL-youtube: https://www.youtube.com/watch?v=SiijZmW9jKM&t=2243s L'Arte dell'Arco
!!!title: @{OTL}, mov. @{OMV}
!!!filter-chint: chint -mid
!!!EEV: 2024/05/11
!!!source-file: https://bitbucket.org/musedata/vivaldi/src/master/roger/op2/no01/stage2/03/01
!!!source-file: https://bitbucket.org/musedata/vivaldi/src/master/roger/op2/no01/stage2/03/02
